X: 43193
T: Wishing Steps
R: waltz
M: 3/4
K: Eminor
|:e2 ed eg|B2 B2 AG|A2 (3)BAG Ad|AG E2 z2|
z2 E2 GA|dA (3)GAB A2|GA B2 B2|ge de e2:|
|:gf eB GB|A2 Bc B2|f2 dB A^G|=GA G2 z2|
z2 G2 AG|^GA Bd f2|B2 cB A2|BG Be fg:|

